!!!COM: Corelli, Arcangelo
!!!OPR: Sonata da chiesa
!!!OPS: 3
!!!ONM: 12
!!!OMV: 3
!!!OMD: Adagio
**kern	**fb	**kern	**kern
*part4	*part4	*part2	*part1
*staff4	*	*staff2	*staff1
*I"Violone & Organo	*	*I"Violino II	*I"Violino I
*clefF4	*	*clefG2	*clefG2
*k[f#c#]	*	*k[f#c#]	*k[f#c#]
*b:	*	*b:	*b:
*M4/4	*	*M4/4	*M4/4
*met(c)	*	*met(c)	*met(c)
*MM36	*	*MM36	*MM36
=1	=1	=1	=1
4E	6 #4|	4a#X	4cc#
4D#X	6	2r	8ff#L
.	.	.	8bJ
4C#	7	.	4.ee
4F#	7 #	[4cc#	.
.	.	.	(16dd#XLL
.	.	.	16cc#JJ)
=2	=2	=2	=2
4B	9 #	4cc#]	4dd#X
4BB	8	8bL	8r
.	.	8aniJ	8ff#
4E	#	8g#XL	8eeL
.	.	8a#XJ	8dd#
4BB	#	[4b	8cc#
.	.	.	8bJ
=3	=3	=3	=3
4F#	#6\ 4	4b]	4dd#X
4FF#	5 #	4a#X	4cc#
4.BB	.	4b	4b
.	.	4r	[4bb
8GG#X	6	.	.
=4	=4	=4	=4
8AAL	9	2ccc#	4bb]
8BB	.	.	.
8C#	6	.	2aa
8D#XJ	.	.	.
8EL	5 4	2bb	.
8F#	.	.	.
8G#X	6	.	[4gg#X
8EJ	.	.	.
=5	=5	=5	=5
8F#L	#9\	2aa	4gg#]
8E	.	.	.
8D#X	5	.	2ff#
8BBJ	.	.	.
8EL	9 #	[2gg#X	.
8F#	.	.	.
8G#X	6	.	8eeL
8EJ	.	.	8ddniJ
=6	=6	=6	=6
4A	#7\	4gg#]	8cc#L
.	.	.	8dd#XJ
4A#X	-7 5	4ggn	2ee
4B	5 4	2ff#	.
4BB	#	.	4dd#
=7	=7	=7	=7
4E	.	2ee	4ee
4D#X	6	.	4b
4C#	6	4r	2e
[4AAni	.	4cc#	.
=8	=8	=8	=8
4AA]	#4| 2	4f#	4d#X
8GG#XL	6	8bL	2e
8AAJ	.	8cc#J	.
2BB	#6\ 4	4g#X	.
.	5 #	4f#	4d#
=9	=9	=9	=9
1EE	#	1g#X	1e
==	==	==	==
*-	*-	*-	*-
!!!system-decoration: [{s1,s2},s3,s4]
!!!YEM: CC BY-NC-SA 4.0; CCARH; DCML
!!!RDF**kern: i = editorial accidental